assets/images/discover.svg

<svg width="200" height="200" viewBox="0 0 200 200" fill="none" xmlns="http://www.w3.org/2000/svg">
<g clip-path="url(#clip0)">
<path d="M194.321 194.574C189.063 199.832 180.536 199.832 175.277 194.574L130.46 149.757C128.776 148.075 128.776 145.345 130.46 143.662L143.41 130.713C145.092 129.03 147.822 129.03 149.503 130.713L194.32 175.529C199.58 180.788 199.58 189.315 194.321 194.574Z" fill="#A4C9FF"/>
<path d="M143.266 130.858L128.871 116.462C127.06 118.802 125.102 121.064 122.956 123.208C120.811 125.354 118.55 127.312 116.209 129.123L130.606 143.518L143.266 130.858Z" fill="#FFEA92"/>
<path d="M122.732 22.851C95.0019 -4.88119 49.9805 -4.98105 22.3736 22.6258C-5.23331 50.2327 -5.13345 95.2541 22.5987 122.985C50.3292 150.715 95.3488 150.817 122.956 123.208C150.564 95.6011 150.463 50.5814 122.732 22.851ZM109.079 109.329C99.4109 118.995 86.5138 124.301 72.762 124.268C59.0203 124.234 46.1114 118.873 36.4098 109.173C16.3313 89.095 16.2602 56.4951 36.2524 36.5046C45.9167 26.8386 58.8155 21.5325 72.5673 21.5663C86.309 21.6002 99.2196 26.9604 108.92 36.662C118.623 46.3653 123.983 59.2793 124.015 73.0244C124.046 86.7728 118.741 99.6648 109.079 109.329Z" fill="#F9A7A7"/>
<path d="M184.799 200.252C180.739 200.252 176.922 198.671 174.052 195.799L129.237 150.982C126.881 148.626 126.881 144.793 129.237 142.439L142.186 129.489C143.327 128.347 144.845 127.719 146.458 127.719C148.073 127.719 149.591 128.347 150.732 129.489L195.547 174.306C198.419 177.176 200 180.993 200 185.053C200 189.112 198.419 192.928 195.547 195.799C192.676 198.67 188.86 200.252 184.799 200.252ZM146.458 131.183C145.769 131.183 145.123 131.452 144.635 131.938L131.686 144.888C130.682 145.891 130.682 147.526 131.686 148.532L176.502 193.347C178.718 195.564 181.665 196.784 184.799 196.784C187.932 196.784 190.879 195.564 193.096 193.347C195.311 191.131 196.532 188.184 196.532 185.051C196.532 181.917 195.311 178.97 193.096 176.755L148.278 131.938C147.794 131.452 147.145 131.183 146.458 131.183Z" fill="#304860"/>
<path d="M130.606 145.252C130.163 145.252 129.719 145.082 129.381 144.744L114.984 130.349C114.632 129.997 114.449 129.511 114.48 129.013C114.512 128.518 114.755 128.057 115.15 127.754C117.535 125.906 119.75 123.965 121.73 121.984C123.714 120.002 125.654 117.787 127.5 115.402C127.805 115.008 128.264 114.764 128.761 114.734C129.264 114.701 129.744 114.886 130.097 115.238L144.492 129.633C144.816 129.958 144.999 130.4 144.999 130.858C144.999 131.319 144.816 131.759 144.492 132.084L131.831 144.744C131.493 145.082 131.049 145.252 130.606 145.252ZM118.809 129.271L130.606 141.068L140.815 130.858L129.018 119.061C127.454 120.982 125.833 122.783 124.181 124.433C122.531 126.085 120.73 127.707 118.809 129.271Z" fill="#304860"/>
<path d="M72.9871 145.582C72.9312 145.582 72.8771 145.582 72.8195 145.582C53.3808 145.538 35.1099 137.948 21.3733 124.21C7.63332 110.472 0.0440004 92.2008 -5.2683e-06 72.7638C-0.0423186 53.3217 7.46745 35.0813 21.1465 21.4005C49.4304 -6.88169 95.5502 -6.78183 123.958 21.6256C137.696 35.3639 145.285 53.6348 145.329 73.0718C145.372 92.514 137.862 110.754 124.181 124.435C110.541 138.075 92.3649 145.582 72.9871 145.582ZM72.3456 3.71864C54.6705 3.71864 37.0241 10.4245 23.599 23.8513C10.5749 36.8753 3.42568 54.2424 3.4663 72.7553C3.50861 91.27 10.7374 108.673 23.8241 121.759C36.909 134.844 54.3117 142.073 72.828 142.115H72.9871C91.4408 142.115 108.745 134.969 121.732 121.984C134.756 108.96 141.905 91.5932 141.863 73.0803C141.822 54.564 134.592 37.1614 121.507 24.0747C107.94 10.5091 90.1273 3.71864 72.3456 3.71864ZM72.8889 126.001C72.8449 126.001 72.8009 126.001 72.7569 126.001C58.5532 125.967 45.2109 120.426 35.1844 110.399C25.1476 100.362 19.6029 87.0132 19.5724 72.8095C19.542 58.6041 25.0309 45.2771 35.027 35.2793C44.9892 25.3154 58.2722 19.8332 72.4404 19.8332H72.5724C86.7744 19.8671 100.118 25.4084 110.147 35.4367C120.177 45.4666 125.716 58.8139 125.748 73.0194C125.781 87.2316 120.295 100.562 110.302 110.553C100.34 120.519 87.0554 126.001 72.8889 126.001ZM72.4404 23.2995C59.198 23.2995 46.7867 28.4211 37.4777 37.7301C28.1383 47.0695 23.01 59.5265 23.0387 72.8027C23.0675 86.0823 28.2501 98.5631 37.6351 107.948C47.0084 117.321 59.484 122.502 72.7654 122.534H72.8872C86.1296 122.536 98.5426 117.413 107.852 108.104C117.186 98.7696 122.313 86.3125 122.282 73.0278C122.253 59.7448 117.072 47.2658 107.694 37.8875C98.3192 28.5125 85.8419 23.3317 72.5622 23.2995C72.5233 23.2995 72.481 23.2995 72.4404 23.2995Z" fill="#304860"/>
<path d="M90.9432 76.2622C94.7446 72.1104 97.0651 66.5792 97.0651 60.5064C97.0651 47.6144 86.6154 37.1647 73.7233 37.1647C60.8313 37.1647 50.3833 47.6161 50.3833 60.5064C50.3833 66.5792 52.7038 72.1087 56.5052 76.2622H56.4443C60.3032 80.832 62.6355 86.7339 62.6355 93.1841C62.6355 93.5751 62.6237 93.9644 62.6068 94.352H84.8382C84.8213 93.9644 84.8094 93.5751 84.8094 93.1841C84.8094 86.7339 87.1417 80.832 91.0024 76.2622H90.9432Z" fill="#FFEA94"/>
<path d="M90.4743 36.2762L90.5708 36.3727C91.9113 37.7132 94.0862 37.7132 95.4267 36.3727L102.95 28.8494C104.29 27.5089 104.29 25.334 102.95 23.9935L102.854 23.8987C101.513 22.5565 99.3381 22.5565 97.9976 23.8987L90.4743 31.4203C89.1338 32.7625 89.1338 34.9357 90.4743 36.2762Z" fill="#FFE164"/>
<path d="M73.2596 29.4586H73.1326C71.2353 29.4586 69.6951 27.9184 69.6951 26.0194V15.3429C69.6951 13.4439 71.2353 11.9054 73.1326 11.9054H73.2596C75.1586 11.9054 76.6971 13.4439 76.6971 15.3429V26.0194C76.6971 27.9184 75.1586 29.4586 73.2596 29.4586Z" fill="#FFE164"/>
<path d="M56.2107 36.2762L56.1142 36.3727C54.7737 37.7132 52.5988 37.7132 51.2583 36.3727L43.7367 28.8494C42.3962 27.5089 42.3962 25.334 43.7367 23.9935L43.8332 23.8987C45.1737 22.5565 47.3469 22.5565 48.6874 23.8987L56.2107 31.4203C57.5512 32.7625 57.5512 34.9357 56.2107 36.2762Z" fill="#FFE164"/>
<path d="M98.2887 46.4245V46.2891C98.2887 44.3918 99.8255 42.855 101.721 42.855H112.36C114.256 42.855 115.795 44.3918 115.795 46.2891V46.4245C115.795 48.3202 114.256 49.857 112.36 49.857H101.721C99.8255 49.857 98.2887 48.3202 98.2887 46.4245Z" fill="#FFDC85"/>
<path d="M30.5993 46.4245V46.2891C30.5993 44.3918 32.1378 42.855 34.0334 42.855H44.6727C46.5683 42.855 48.1051 44.3918 48.1051 46.2891V46.4245C48.1051 48.3202 46.5683 49.857 44.6727 49.857H34.0317C32.1361 49.857 30.5993 48.3202 30.5993 46.4245Z" fill="#FFE164"/>
<path d="M85.2833 101.354H62.165C61.4592 101.354 60.8871 100.78 60.8871 100.074V95.6299C60.8871 94.9241 61.4592 94.3521 62.165 94.3521H85.2833C85.9891 94.3521 86.5612 94.9241 86.5612 95.6299V100.074C86.5612 100.78 85.9891 101.354 85.2833 101.354Z" fill="#6BDDDD"/>
<path d="M83.3724 108.356H64.6581C63.5427 108.356 62.6355 107.45 62.6355 106.333V101.352H85.3933V106.333C85.395 107.45 84.4895 108.356 83.3724 108.356Z" fill="#6BDDDD"/>
<path d="M76.0573 117.692H71.3893C67.5219 117.692 64.3873 114.556 64.3873 110.69V108.356H83.061V110.69C83.0593 114.556 79.9248 117.692 76.0573 117.692Z" fill="#6BDDDD"/>
<path d="M85.2833 103.087H62.165C60.5046 103.087 59.154 101.735 59.154 100.074V95.6282C59.154 93.9678 60.5046 92.6172 62.165 92.6172H85.2833C86.9437 92.6172 88.2943 93.9678 88.2943 95.6282V100.074C88.2943 101.735 86.9437 103.087 85.2833 103.087ZM62.6203 99.6209H84.828V96.0852H62.6203V99.6209Z" fill="#304860"/>
<path d="M83.3724 110.089H64.6581C62.5881 110.089 60.9024 108.405 60.9024 106.335V101.354C60.9024 100.396 61.6792 99.621 62.6355 99.621H85.3933C86.3496 99.621 87.1265 100.396 87.1265 101.354V106.335C87.1282 108.404 85.4441 110.089 83.3724 110.089ZM64.3704 103.087V106.335C64.3704 106.493 64.499 106.623 64.6581 106.623H83.3741C83.5315 106.623 83.6619 106.493 83.6619 106.335V103.087H64.3704Z" fill="#304860"/>
<path d="M76.0573 119.425H71.3893C66.5724 119.425 62.6542 115.507 62.6542 110.688V108.356C62.6542 107.398 63.431 106.623 64.3873 106.623H83.061C84.0173 106.623 84.7942 107.398 84.7942 108.356V110.688C84.7942 115.507 80.876 119.425 76.0573 119.425ZM66.1205 110.089V110.688C66.1205 113.596 68.4849 115.959 71.3893 115.959H76.0573C78.9634 115.959 81.3279 113.594 81.3279 110.688V110.089H66.1205Z" fill="#304860"/>
<path d="M84.8399 96.0835H62.6085C62.1362 96.0835 61.6826 95.8906 61.356 95.5487C61.0293 95.2068 60.855 94.7481 60.877 94.2759C60.8922 93.912 60.9041 93.5498 60.9041 93.1825C60.9041 87.4076 58.851 81.7952 55.1207 77.3794C55.0462 77.2897 54.9802 77.1966 54.9261 77.0984C50.8758 72.5133 48.6501 66.6386 48.6501 60.5065C48.6501 46.6819 59.8987 35.4316 73.725 35.4316C87.5496 35.4316 98.7982 46.6802 98.7982 60.5065C98.7982 66.6386 96.5725 72.5116 92.5223 77.0984C92.4681 77.1966 92.4038 77.2914 92.3276 77.3794C88.5973 81.7952 86.5443 87.4076 86.5443 93.1825C86.5443 93.5498 86.5561 93.912 86.5713 94.2759C86.5933 94.7481 86.419 95.2068 86.0923 95.5487C85.7657 95.8906 85.3121 96.0835 84.8399 96.0835ZM64.3636 92.6172H83.0847C83.21 86.3701 85.4407 80.3193 89.4012 75.477C89.4689 75.3399 89.557 75.2095 89.6653 75.0911C93.3195 71.1001 95.3319 65.9192 95.3319 60.5065C95.3319 48.5911 85.6387 38.8979 73.725 38.8979C61.8096 38.8979 52.1165 48.5911 52.1165 60.5065C52.1165 65.9192 54.1289 71.1001 57.7831 75.0911C57.8948 75.2129 57.9862 75.3466 58.0572 75.4905C62.0127 80.3311 64.2367 86.3752 64.3636 92.6172Z" fill="#304860"/>
<path d="M74.0432 85.5221C70.8646 85.5221 68.6474 82.1066 70.7699 78.6555C70.8325 78.554 70.9188 78.4592 71.0153 78.3881C74.4274 75.8544 78.0985 78.1156 78.0985 81.411C78.0985 83.7196 76.296 85.5221 74.0432 85.5221ZM71.3301 45.993H76.3637C76.8511 45.993 77.2421 46.3959 77.2303 46.8833L76.5448 72.4609C76.5313 72.9297 76.147 73.3037 75.6782 73.3037H72.0156C71.545 73.3037 71.1625 72.9297 71.149 72.4609L70.4635 46.8833C70.4517 46.3959 70.8426 45.993 71.3301 45.993Z" fill="#F9A7A7"/>
</g>
<defs>
<clipPath id="clip0">
<rect width="200" height="200" fill="white"/>
</clipPath>
</defs>
</svg>

<svg xmlns="http://www.w3.org/2000/svg" width="200" height="200" fill="none" xmlns:v="https://vecta.io/nano"><g clip-path="url(#A)"><path d="M194.321 194.574a13.47 13.47 0 0 1-19.044 0l-44.817-44.817a4.31 4.31 0 0 1 0-6.095l12.95-12.949a4.31 4.31 0 0 1 6.093 0l44.817 44.816a13.47 13.47 0 0 1 .001 19.045z" fill="#a4c9ff"/><path d="M143.266 130.858l-14.395-14.396c-1.811 2.34-3.769 4.602-5.915 6.746s-4.406 4.104-6.747 5.915l14.397 14.395 12.66-12.66z" fill="#ffea92"/><path d="M122.732 22.851C95.002-4.881 49.981-4.981 22.374 22.626s-27.507 72.628.225 100.359 72.75 27.832 100.357.223 27.507-72.627-.224-100.357zm-13.653 86.478c-9.668 9.666-22.565 14.972-36.317 14.939-13.742-.034-26.651-5.395-36.352-15.095-20.078-20.078-20.15-52.678-.157-72.668 9.664-9.666 22.563-14.972 36.315-14.938 13.742.034 26.652 5.394 36.353 15.096s15.063 22.617 15.095 36.362-5.274 26.64-14.936 36.305z" fill="#f9a7a7"/><g fill="#304860"><path d="M184.799 200.252a15.09 15.09 0 0 1-10.747-4.453l-44.815-44.817a6.05 6.05 0 0 1 0-8.543l12.949-12.95a6 6 0 0 1 4.272-1.77 6 6 0 0 1 4.274 1.77l44.815 44.817A15.09 15.09 0 0 1 200 185.053c0 4.059-1.581 7.875-4.453 10.746a15.1 15.1 0 0 1-10.748 4.453zm-38.341-69.069c-.689 0-1.335.269-1.823.755l-12.949 12.95a2.58 2.58 0 0 0 0 3.644l44.816 44.815c2.216 2.217 5.163 3.437 8.297 3.437s6.08-1.22 8.297-3.437a11.66 11.66 0 0 0 3.436-8.296c0-3.134-1.221-6.081-3.436-8.296l-44.818-44.817c-.484-.486-1.133-.755-1.82-.755z"/><path d="M130.606 145.252a1.73 1.73 0 0 1-1.225-.508l-14.397-14.395c-.352-.352-.535-.838-.504-1.336a1.73 1.73 0 0 1 .67-1.259c2.385-1.848 4.6-3.789 6.58-5.77s3.924-4.197 5.77-6.582c.305-.394.764-.638 1.261-.668a1.72 1.72 0 0 1 1.336.504l14.395 14.395a1.74 1.74 0 0 1 .507 1.225c0 .461-.183.901-.507 1.226l-12.661 12.66a1.73 1.73 0 0 1-1.225.508zm-11.797-15.981l11.797 11.797 10.209-10.21-11.797-11.797-4.837 5.372c-1.65 1.652-3.451 3.274-5.372 4.838z"/><path d="M72.987 145.582h-.168c-19.439-.044-37.71-7.634-51.446-21.372S.044 92.201 0 72.764c-.042-19.442 7.467-37.683 21.147-51.363C49.43-6.882 95.55-6.782 123.958 21.626c13.738 13.738 21.327 32.009 21.371 51.446.043 19.442-7.467 37.682-21.148 51.363-13.64 13.64-31.816 21.147-51.194 21.147zM72.346 3.719c-17.675 0-35.322 6.706-48.747 20.133C10.575 36.875 3.426 54.242 3.466 72.755s7.271 35.918 20.358 49.004 30.488 20.314 49.004 20.356h.159c18.454 0 35.758-7.146 48.745-20.131 13.024-13.024 20.173-30.391 20.131-48.904s-7.271-35.919-20.356-49.006C107.94 10.509 90.127 3.719 72.346 3.719zm.543 122.282h-.132c-14.204-.034-27.546-5.575-37.573-15.602-10.037-10.037-15.581-23.386-15.612-37.589s5.459-27.532 15.455-37.53c9.962-9.964 23.245-15.446 37.413-15.446h.132c14.202.034 27.546 5.575 37.575 15.604s15.569 23.377 15.601 37.583c.033 14.212-5.453 27.543-15.446 37.534-9.962 9.966-23.247 15.448-37.413 15.448zM72.44 23.3c-13.242 0-25.654 5.122-34.963 14.431-9.339 9.339-14.468 21.796-14.439 35.073a49.53 49.53 0 0 0 14.596 35.145c9.373 9.373 21.849 14.554 35.13 14.586h.122c13.242.002 25.655-5.121 34.965-14.43 9.334-9.334 14.461-21.791 14.43-35.076s-5.21-25.762-14.588-35.14A49.53 49.53 0 0 0 72.562 23.3h-.122z"/></g><path d="M90.943 76.262c3.801-4.152 6.122-9.683 6.122-15.756 0-12.892-10.45-23.342-23.342-23.342s-23.34 10.451-23.34 23.342c0 6.073 2.321 11.602 6.122 15.756h-.061c3.859 4.57 6.191 10.472 6.191 16.922a26.8 26.8 0 0 1-.029 1.168h22.231a26.8 26.8 0 0 1-.029-1.168 26.13 26.13 0 0 1 6.193-16.922h-.059z" fill="#ffea94"/><g fill="#ffe164"><path d="M90.474 36.276l.097.096c1.34 1.34 3.515 1.34 4.856 0l7.523-7.523c1.34-1.34 1.34-3.515 0-4.856l-.096-.095c-1.341-1.342-3.516-1.342-4.856 0l-7.523 7.522c-1.341 1.342-1.341 3.515 0 4.856zM73.26 29.459h-.127a3.44 3.44 0 0 1-3.437-3.439V15.343a3.44 3.44 0 0 1 3.438-3.437h.127a3.44 3.44 0 0 1 3.438 3.438v10.677a3.44 3.44 0 0 1-3.437 3.439zm-17.049 6.817l-.097.096c-1.34 1.34-3.515 1.34-4.856 0l-7.522-7.523c-1.34-1.34-1.34-3.515 0-4.856l.096-.095a3.43 3.43 0 0 1 4.854 0l7.523 7.522c1.34 1.342 1.34 3.515 0 4.856z"/></g><path d="M98.289 46.425v-.135c0-1.897 1.537-3.434 3.432-3.434h10.639c1.896 0 3.435 1.537 3.435 3.434v.135c0 1.896-1.539 3.432-3.435 3.432h-10.639c-1.895 0-3.432-1.537-3.432-3.432z" fill="#ffdc85"/><path d="M30.599 46.425v-.135c0-1.897 1.538-3.434 3.434-3.434h10.639c1.896 0 3.432 1.537 3.432 3.434v.135c0 1.896-1.537 3.432-3.432 3.432H34.032c-1.896 0-3.432-1.537-3.432-3.432z" fill="#ffe164"/><g fill="#6bdddd"><path d="M85.283 101.354H62.165a1.28 1.28 0 0 1-1.278-1.28V95.63a1.28 1.28 0 0 1 1.278-1.278h23.118a1.28 1.28 0 0 1 1.278 1.278v4.444a1.28 1.28 0 0 1-1.278 1.28z"/><path d="M83.372 108.356H64.658c-1.115 0-2.023-.906-2.023-2.023v-4.981h22.758v4.981a2.02 2.02 0 0 1-2.021 2.023z"/><path d="M76.057 117.692h-4.668c-3.867 0-7.002-3.136-7.002-7.002v-2.334h18.674v2.334c-.002 3.866-3.136 7.002-7.004 7.002z"/></g><g fill="#304860"><path d="M85.283 103.087H62.165c-1.66 0-3.011-1.352-3.011-3.013v-4.446c0-1.66 1.351-3.011 3.011-3.011h23.118c1.66 0 3.011 1.351 3.011 3.011v4.446c0 1.661-1.351 3.013-3.011 3.013zM62.62 99.621h22.208v-3.536H62.62v3.536z"/><path d="M83.372 110.089H64.658a3.76 3.76 0 0 1-3.756-3.754v-4.981c0-.958.777-1.733 1.733-1.733h22.758c.956 0 1.733.775 1.733 1.733v4.981a3.76 3.76 0 0 1-3.754 3.754zm-19.002-7.002v3.248c0 .158.129.288.288.288h18.716a.29.29 0 0 0 .288-.288v-3.248H64.37z"/><path d="M76.057 119.425h-4.668c-4.817 0-8.735-3.918-8.735-8.737v-2.332c0-.958.777-1.733 1.733-1.733h18.674c.956 0 1.733.775 1.733 1.733v2.332a8.75 8.75 0 0 1-8.737 8.737zm-9.937-9.336v.599c0 2.908 2.364 5.271 5.269 5.271h4.668a5.28 5.28 0 0 0 5.271-5.271v-.599H66.121zm18.72-14.005H62.609a1.73 1.73 0 0 1-1.731-1.808l.027-1.093a24.52 24.52 0 0 0-5.783-15.803 1.86 1.86 0 0 1-.195-.281c-4.05-4.585-6.276-10.46-6.276-16.592 0-13.825 11.249-25.075 25.075-25.075S98.798 46.68 98.798 60.507a25.01 25.01 0 0 1-6.276 16.592 1.59 1.59 0 0 1-.195.281 24.52 24.52 0 0 0-5.783 15.803 26.1 26.1 0 0 0 .027 1.093c.022.472-.152.931-.479 1.273s-.78.535-1.252.535zm-20.476-3.466h18.721a28 28 0 0 1 6.317-17.14 1.66 1.66 0 0 1 .264-.386 21.55 21.55 0 0 0 5.667-14.585c0-11.915-9.693-21.609-21.607-21.609s-21.608 9.693-21.608 21.609c0 5.413 2.012 10.594 5.667 14.585.112.122.203.255.274.399a28 28 0 0 1 6.306 17.127z"/></g><path d="M74.043 85.522c-3.179 0-5.396-3.415-3.273-6.867.063-.102.149-.196.245-.267 3.412-2.534 7.083-.272 7.083 3.023 0 2.309-1.802 4.111-4.055 4.111zM71.33 45.993h5.034a.87.87 0 0 1 .867.89l-.686 25.578a.87.87 0 0 1-.867.843h-3.663c-.471 0-.853-.374-.867-.843l-.686-25.578a.87.87 0 0 1 .867-.89z" fill="#f9a7a7"/></g><defs><clipPath id="A"><path fill="#fff" d="M0 0h200v200H0z"/></clipPath></defs></svg>
